X:1
T:Title
%%score { ( 1 3 ) | ( 2 4 ) }
L:1/8
Q:1/4=95
M:6/8
K:Bb
V:1 treble nm="Grand Piano"
V:3 treble 
V:2 bass 
V:4 bass 
V:1
 [DB]2 [DA] [DG]2 [DF] | [B,D][DF][DB] [EA]2 [EA] | c2 B A2 G | GCG [DF]3 | [DB]2 [DA] [DG]2 D | %5
w: Geo.~C.~Stebbins * * *|||||
 [DF][DB][Fd] [Ec]2 [Gc] | [Ge]2 [Gd] cGB | B2 [EA] [DB]3 | z3 .d3 | e2 A A3 | B2 B BA[FB] | %11
w: ||||||
 [=Ed]2 [Ec] c3 | d2 d .[Gf]2 [B,GB] | [Fd]3 [Ec]3 | [DB]6 |] %15
w: ||||
V:2
 [B,,F,]2 [B,,F,] [B,,F,]2 [B,,F,] | [B,,F,]2 [B,,F,] [C,F,]2 [C,F,] | %2
 [F,A,E]2 [F,B,E] [F,CE]2 [F,A,E] | .[F,A,E]2 [F,A,E] [B,,B,]3 | %4
 [B,,F,]2 [B,,F,] [B,,F,]2 [B,,F,] | [B,,F,]2 [B,,B,] [E,G,]2 [E,C] | %6
 [C,C]2 [D,=B,] [E,CE]2 [E,G,E] | [F,D]2 [F,,F,] [B,,F,]3 | [B,DF]2 [B,DG] .[B,DB]2 [B,DG] | %9
 [A,CF]2[K:bass] [F,CE] [F,CE]3 | z3 .F3 | [C,B,]2 [C,B,][K:treble] [F,A,F]3 | %12
 [B,F]2 [B,_A] z e[K:bass]E, | [F,B,]3 [F,A,]3 | [B,,B,]6 |] %15
V:3
 x6 | x6 | x6 | x6 | x6 | x6 | x6 | x6 | d2 d z Ad | x6 | x6 | x6 | x6 | x6 | x6 |] %15
V:4
 x6 | x6 | x6 | x6 | x6 | x6 | x6 | x6 | x6 | x2[K:bass] x4 | [G,B,D]2 [G,C=E] [F,D][E,C][D,B,] | %11
 x3[K:treble] x3 | z3 .[E,B,]3[K:bass] | x6 | x6 |] %15

